src/assets/icons/icon-fr_2.svg

<svg fill="none" viewBox="0 0 1600 896" xmlns="http://www.w3.org/2000/svg"><g clip-path="url(#a)" fill="#fff"><path d="M1576.9 398.66l22.1 40.171-26.42-36.678-22.58-14.409-28.34-17.903-13.45 1.747-7.68-19.649-17.78-10.917-12.01-39.734-35.54-13.973-38.91.873-59.57 16.156h-30.34l-22.98 17.903-4.8 9.606-9.61 9.169v11.353l-16.81 13.1v20.959l-19.21 9.975 19.21 25.393v24.016l21.61 27.509v49.341l-19.69 30.565 12.49 51.524v9.607l14.89 27.945-12.97 9.606-6.24 14.41v10.042l-8.17 7.423 19.69 17.03 2.89 13.972 8.16 4.367 3.85 11.353-7.21 20.085 3.36-16.592-11.05-13.1-7.2-6.113 1.92-10.479-23.06-20.523 8.65-10.479-3.36-8.733 5.76-12.663 7.69-14.409-10.09-23.142 2.4-18.776-11.05-46.285 23.54-22.706-4.8-51.087-24.5-29.692v-16.593l-18.84-20.383-45.05 11.65-10.57 12.663 6.25 12.663-23.06 29.692-6.24 21.396-24.02 5.239-55.24-8.733-13.94 8.733-73.971-8.733-15.852 8.733-37.468-1.746-62.928 11.352-8.166 15.283 16.332 24.016 56.683 15.282 1.922 43.228 12.009 16.156-15.852 10.917 11.048-10.917-11.048-16.156-6.245-41.044-50.438-7.86-49.477 34.932-17.293 25.325-26.42 15.72-7.206 37.115-50.438 47.594-4.323 36.679-16.332-25.763-28.822-8.733h32.664l18.735-30.565 25.939-19.212 2.402-17.903 14.411-26.635 30.263-30.566V587.51h-115.29l-9.127-11.135-22.097-7.423-26.9 7.423-14.411 11.135h-13.931l-14.891 13.317h-31.223l-10.568 28.383-14.411 13.099-5.284 10.48-10.088 4.366-1.921 13.536 7.205 10.043-32.664 36.242 8.646 22.705-6.725 8.733-1.921 12.663-5.284-17.466-16.333-3.93 18.734-13.972-10.568-5.24 8.167-12.663 26.42-31.439-12.49-20.959-17.293-10.042-34.586-3.057-15.372-17.466h-22.577l-19.695 17.466-45.634 6.55 45.634-10.916 19.695-19.65 13.45-10.916v-6.55h-4.803l-2.402-25.325 2.402-9.17-2.402-13.972 2.402-13.973-19.215-10.48v-10.479l5.765 10.479 18.253 6.55-2.401 21.396 7.685 10.479-5.284 9.17 12.97 31.875-12.97 7.423 12.97 3.493 24.979 17.03h26.9l14.892 2.62v10.916h9.127l13.45-19.649 2.882-7.86 19.695-8.296 6.244-27.072 31.224-9.607v-70.3l21.616-16.156v-11.353l25.94-10.043 13.45-19.649-7.686-13.099-5.764-18.776 18.254-7.423-12.49 7.423 5.284 18.776 15.852 10.479-15.852 25.763-27.38 6.549-4.324 20.523-13.45 11.353v68.116l19.695-3.056 9.127-9.17 35.066-6.549 15.372 6.549 25.94 6.55h106.35l36.799-31.875-11.049-81.217 11.049-34.931 20.655-40.608-34.586-27.509 13.931-13.1v-17.466l6.244-13.099-4.323-21.396 8.166 17.903-3.843 20.959v13.099l-11.048 10.043 35.066 14.846 39.39 5.677 37.468-9.607-33.145 13.1h-26.9l-22.577 6.55-10.088 25.325-12.489 50.214 15.852 46.722 56.202-20.959h31.224l20.655-9.17 84.546 3.93 15.85-10.48 31.7 3.494 24.5 6.986 25.46-10.48v-15.719l25.46-27.072-1.92-22.269 66.1-21.134 15.56-13.798 1.92-17.466 16.33-11.353v-11.789l27.03-24.889h-9.73l-13.45-28.382-36.99-31.875 24.02-38.425-21.53-62.22-22.18 2.836-21.14-12.226-41.31-22.269-2.88-15.72-18.74-7.423-13.93-20.522h-15.85l-22.1-20.959-30.74 6.55 23.54-10.48-14.41-20.96 2.88-22.268 4.8 22.269 9.61 15.719h7.69l18.73 20.086 19.69 7.423 13.45 20.959 12.97 2.183 12.97 7.423v9.607l21.62 15.282 36.03 18.339 17.14-2.097-.33-.96 8.17-10.042 42.27-10.916-5.29-23.58 16.34 29.256-44.2 10.043 15.85 80.343-24.97 32.749 42.27 24.889 11.05 19.212 31.22 8.733 60.05-17.03h55.24l35.56 15.76 7.67-3.096 54.76-48.905 14.89 3.493 21.62-29.255-13.93 22.706 24.98 5.676 3.84 7.86-6.25-6.987-22.09-3.93-8.17 10.043-14.89-6.113-56.43 55.076 17.04 28.76 16.81 11.79 12.01 13.536 26.42 24.889 26.9 17.466zM473.51 778.1l1.921-10.479-15.372 3.493-16.332 3.93-24.498 28.818-19.215 12.663-4.323 13.536-9.127 6.55-13.45 13.099-11.529 8.733 7.206 37.552-1.922-29.692 10.568-16.593 18.254-10.043 17.773-14.845 25.94-8.297 12.489-19.212 18.734-11.79 24.019 11.79 16.332 14.846 15.852 9.606 11.529 13.099v19.649l12.489 35.369-8.166-40.172v-30.128l-15.852-5.677v-10.043l-12.49-6.549-8.166-7.86L473.51 778.1z"/></g><defs><clipPath id="a"><path fill="#fff" d="M0 0h1600v896H0z"/></clipPath></defs></svg>

<svg width="1600" height="896" viewBox="0 0 1600 896" fill="none" xmlns="http://www.w3.org/2000/svg">
<g clip-path="url(#clip0)">
<path d="M1576.9 398.659L1599 438.83L1572.58 402.152L1550 387.743L1521.66 369.84L1508.21 371.587L1500.53 351.938L1482.75 341.021L1470.74 301.287L1435.2 287.314L1396.29 288.187L1336.72 304.343H1306.38L1283.4 322.246L1278.6 331.852L1268.99 341.021V352.374L1252.18 365.474V386.433L1232.97 396.408L1252.18 421.801V445.817L1273.79 473.326V522.667L1254.1 553.232L1266.59 604.756V614.363L1281.48 642.308L1268.51 651.914L1262.27 666.324V676.366L1254.1 683.789L1273.79 700.819L1276.68 714.791L1284.84 719.158L1288.69 730.511L1281.48 750.596L1284.84 734.004L1273.79 720.904L1266.59 714.791L1268.51 704.312L1245.45 683.789L1254.1 673.31L1250.74 664.577L1256.5 651.914L1264.19 637.505L1254.1 614.363L1256.5 595.587L1245.45 549.302L1268.99 526.596L1264.19 475.509L1239.69 445.817V429.224L1220.85 408.841L1175.8 420.491L1165.23 433.154L1171.48 445.817L1148.42 475.509L1142.18 496.905L1118.16 502.144L1062.92 493.411L1048.98 502.144L975.009 493.411L959.157 502.144L921.689 500.398L858.761 511.75L850.595 527.033L866.927 551.049L923.61 566.331L925.532 609.559L937.541 625.715L921.689 636.632L932.737 625.715L921.689 609.559L915.444 568.515L865.006 560.655L815.529 595.587L798.236 620.912L771.816 636.632L764.61 673.747L714.172 721.341L709.849 758.02L693.517 732.257L664.695 723.524H697.359L716.094 692.959L742.033 673.747L744.435 655.844L758.846 629.209L789.109 598.643V587.509H673.822L664.695 576.374L642.598 568.951L615.698 576.374L601.287 587.509H587.356L572.465 600.826H541.242L530.674 629.209L516.263 642.308L510.979 652.788L500.891 657.154L498.97 670.69L506.175 680.733L473.511 716.975L482.157 739.68L475.432 748.413L473.511 761.076L468.227 743.61L451.894 739.68L470.628 725.708L460.06 720.468L468.227 707.805L494.647 676.366L482.157 655.407L464.864 645.365L430.278 642.308L414.906 624.842H392.329L372.634 642.308L327 648.858L372.634 637.942L392.329 618.292L405.779 607.376V600.826H400.976L398.574 575.501L400.976 566.331L398.574 552.359L400.976 538.386L381.761 527.906V517.427L387.526 527.906L405.779 534.456L403.378 555.852L411.063 566.331L405.779 575.501L418.749 607.376L405.779 614.799L418.749 618.292L443.728 635.322H470.628L485.52 637.942V648.858H494.647L508.097 629.209L510.979 621.349L530.674 613.053L536.918 585.981L568.142 576.374V506.074L589.758 489.918V478.565L615.698 468.522L629.148 448.873L621.462 435.774L615.698 416.998L633.952 409.575L621.462 416.998L626.746 435.774L642.598 446.253L626.746 472.016L599.366 478.565L595.042 499.088L581.592 510.441V578.557L601.287 575.501L610.414 566.331L645.48 559.782L660.852 566.331L686.792 572.881H793.141L829.94 541.006L818.891 459.789L829.94 424.858L850.595 384.25L816.009 356.741L829.94 343.641V326.175L836.184 313.076L831.861 291.68L840.027 309.583L836.184 330.542V343.641L825.136 353.684L860.202 368.53L899.592 374.207L937.06 364.6L903.915 377.7H877.015L854.438 384.25L844.35 409.575L831.861 459.789L847.713 506.511L903.915 485.552H935.139L955.794 476.382L1040.34 480.312L1056.19 469.832L1087.89 473.326L1112.39 480.312L1137.85 469.832V454.113L1163.31 427.041L1161.39 404.772L1227.49 383.638L1243.05 369.84L1244.97 352.374L1261.3 341.021V329.232L1288.33 304.343H1278.6L1265.15 275.961L1228.16 244.086L1252.18 205.661L1230.65 143.441L1208.47 146.277L1187.33 134.051L1146.02 111.782L1143.14 96.0624L1124.4 88.6394L1110.47 68.117H1094.62L1072.52 47.1579L1041.78 53.7076L1065.32 43.2281L1050.91 22.269L1053.79 0L1058.59 22.269L1068.2 37.9883H1075.89L1094.62 58.0741L1114.31 65.4971L1127.76 86.4561L1140.73 88.6394L1153.7 96.0624V105.669L1175.32 120.951L1211.35 139.29L1228.49 137.193L1228.16 136.234L1236.33 126.191L1278.6 115.275L1273.31 91.6959L1289.65 120.951L1245.45 130.994L1261.3 211.337L1236.33 244.086L1278.6 268.975L1289.65 288.187L1320.87 296.92L1380.92 279.891H1436.16L1471.72 295.651L1479.39 292.554L1534.15 243.649L1549.04 247.142L1570.66 217.887L1556.73 240.593L1581.71 246.269L1585.55 254.129L1579.3 247.142L1557.21 243.212L1549.04 253.255L1534.15 247.142L1477.72 302.218L1494.76 330.979L1511.57 342.768L1523.58 356.304L1550 381.193L1576.9 398.659Z" fill="white"/>
<path d="M473.511 778.105L475.432 767.626L460.06 771.119L443.728 775.049L419.23 803.867L400.015 816.53L395.692 830.066L386.565 836.616L373.115 849.715L361.586 858.448L368.792 896L366.87 866.308L377.438 849.715L395.692 839.672L413.465 824.827L439.405 816.53L451.894 797.318L470.628 785.528L494.647 797.318L510.979 812.164L526.831 821.77L538.36 834.869V854.518L550.849 889.887L542.683 849.715V819.587L526.831 813.91V803.867L514.341 797.318L506.175 789.458L473.511 778.105Z" fill="white"/>
</g>
<defs>
<clipPath id="clip0">
<rect width="1600" height="896" fill="white"/>
</clipPath>
</defs>
</svg>
